assets/images/devices/tablet.svg

<svg width="28" height="28" viewBox="0 0 28 28" fill="none" xmlns="http://www.w3.org/2000/svg">
<path d="M24.7342 21.7655V25.6668C24.7342 26.1619 24.5376 26.6367 24.1875 26.9867C23.8374 27.3368 23.3626 27.5335 22.8676 27.5335H5.13424C4.63917 27.5335 4.16438 27.3368 3.81431 26.9867C3.46424 26.6367 3.26758 26.1619 3.26758 25.6668V2.33346C3.26758 1.83839 3.46424 1.3636 3.81431 1.01353C4.16438 0.663463 4.63917 0.466797 5.13424 0.466797H22.8676C23.3626 0.466797 23.8374 0.663463 24.1875 1.01353C24.5376 1.3636 24.7342 1.83839 24.7342 2.33346V21.7655Z" fill="#707070"/>
<path d="M22.4014 2.33398H5.60143C5.3437 2.33398 5.13477 2.54292 5.13477 2.80065V25.2007C5.13477 25.4584 5.3437 25.6673 5.60143 25.6673H22.4014C22.6592 25.6673 22.8681 25.4584 22.8681 25.2007V2.80065C22.8681 2.54292 22.6592 2.33398 22.4014 2.33398Z" fill="#2DBBFF"/>
<path d="M22.8681 7.56949V25.2002C22.8681 25.3239 22.8189 25.4426 22.7314 25.5301C22.6439 25.6177 22.5252 25.6668 22.4014 25.6668H5.60143C5.47766 25.6668 5.35897 25.6177 5.27145 25.5301C5.18393 25.4426 5.13477 25.3239 5.13477 25.2002V17.9202C6.46799 14.8174 8.68152 12.1736 11.5016 10.3157C14.3216 8.4578 17.6244 7.46733 21.0014 7.46683C21.6251 7.46562 22.2483 7.49989 22.8681 7.56949Z" fill="#0AB0FF"/>
<path d="M9.33398 6.06589V4.66589C9.33398 4.40815 9.12505 4.19922 8.86732 4.19922H7.46732C7.20958 4.19922 7.00065 4.40815 7.00065 4.66589V6.06589C7.00065 6.32362 7.20958 6.53255 7.46732 6.53255H8.86732C9.12505 6.53255 9.33398 6.32362 9.33398 6.06589Z" fill="#8EDAFF"/>
<path d="M13.5332 6.06589V4.66589C13.5332 4.40815 13.3243 4.19922 13.0665 4.19922H11.6665C11.4088 4.19922 11.1999 4.40815 11.1999 4.66589V6.06589C11.1999 6.32362 11.4088 6.53255 11.6665 6.53255H13.0665C13.3243 6.53255 13.5332 6.32362 13.5332 6.06589Z" fill="#8EDAFF"/>
<path d="M9.33398 10.2651V8.8651C9.33398 8.60737 9.12505 8.39844 8.86732 8.39844H7.46732C7.20958 8.39844 7.00065 8.60737 7.00065 8.8651V10.2651C7.00065 10.5228 7.20958 10.7318 7.46732 10.7318H8.86732C9.12505 10.7318 9.33398 10.5228 9.33398 10.2651Z" fill="#8EDAFF"/>
<path d="M13.5332 10.2651V8.8651C13.5332 8.60737 13.3243 8.39844 13.0665 8.39844H11.6665C11.4088 8.39844 11.1999 8.60737 11.1999 8.8651V10.2651C11.1999 10.5228 11.4088 10.7318 11.6665 10.7318H13.0665C13.3243 10.7318 13.5332 10.5228 13.5332 10.2651Z" fill="#8EDAFF"/>
<path d="M17.7324 6.06589V4.66589C17.7324 4.40815 17.5235 4.19922 17.2658 4.19922H15.8658C15.608 4.19922 15.3991 4.40815 15.3991 4.66589V6.06589C15.3991 6.32362 15.608 6.53255 15.8658 6.53255H17.2658C17.5235 6.53255 17.7324 6.32362 17.7324 6.06589Z" fill="#8EDAFF"/>
<path d="M27.1235 23.641C26.9179 23.779 26.666 23.83 26.4228 23.7828C26.1797 23.7356 25.9652 23.594 25.8262 23.389L25.0469 22.227L26.5962 21.1816L27.3755 22.3436C27.5136 22.5493 27.5646 22.8012 27.5174 23.0443C27.4702 23.2875 27.3285 23.502 27.1235 23.641Z" fill="#35495E"/>
<path d="M26.5964 21.1826L25.0471 22.2279L18.5371 12.5446L20.0864 11.5039L26.5964 21.1826Z" fill="#3F5C6C"/>
<path d="M20.0854 11.5035L18.5361 12.5442L18.0181 11.7695L17.4721 10.0895C17.4407 9.9928 17.4416 9.88849 17.4749 9.79242C17.5082 9.69635 17.572 9.61378 17.6565 9.55727C17.741 9.50075 17.8416 9.47338 17.9431 9.47931C18.0446 9.48525 18.1414 9.52417 18.2188 9.59015L19.5628 10.7288L20.0854 11.5035Z" fill="#35495E"/>
</svg>

<svg xmlns="http://www.w3.org/2000/svg" xmlns:xlink="http://www.w3.org/1999/xlink" width="28" height="28" fill="none" xmlns:v="https://vecta.io/nano"><path d="M24.734 21.766v3.901c0 .495-.197.97-.547 1.32s-.825.547-1.32.547H5.134c-.495 0-.97-.197-1.32-.547s-.547-.825-.547-1.32V2.333c0-.495.197-.97.547-1.32s.825-.547 1.32-.547h17.733c.495 0 .97.197 1.32.547s.547.825.547 1.32v19.432z" fill="#707070"/><path d="M22.401 2.334h-16.8c-.258 0-.467.209-.467.467v22.4c0 .258.209.467.467.467h16.8c.258 0 .467-.209.467-.467v-22.4c0-.258-.209-.467-.467-.467z" fill="#2dbbff"/><path d="M22.868 7.569V25.2c0 .124-.049.242-.137.33s-.206.137-.33.137h-16.8c-.124 0-.242-.049-.33-.137s-.137-.206-.137-.33v-7.28A17.27 17.27 0 0 1 21.001 7.467a16.44 16.44 0 0 1 1.867.103z" fill="#0ab0ff"/><g fill="#8edaff"><use xlink:href="#B"/><use xlink:href="#B" x="4.199"/><use xlink:href="#B" y="4.199"/><use xlink:href="#B" x="4.199" y="4.199"/><use xlink:href="#B" x="8.398"/></g><path d="M27.124 23.641c-.206.138-.457.189-.701.142s-.458-.189-.597-.394l-.779-1.162 1.549-1.045.779 1.162c.138.206.189.458.142.701s-.189.458-.394.597z" fill="#35495e"/><path d="M26.596 21.183l-1.549 1.045-6.51-9.683 1.549-1.041 6.51 9.679z" fill="#3f5c6c"/><path d="M20.085 11.504l-1.549 1.041-.518-.775-.546-1.68c-.031-.097-.03-.201.003-.297s.097-.179.182-.235.185-.084.287-.078.198.045.276.111l1.344 1.139.523.775z" fill="#35495e"/><defs ><path id="B" d="M9.334 6.066v-1.4c0-.258-.209-.467-.467-.467h-1.4c-.258 0-.467.209-.467.467v1.4c0 .258.209.467.467.467h1.4c.258 0 .467-.209.467-.467z"/></defs></svg>
